src/lib/packages/icons/src/assets/line/package-check.svg

<svg width="24" height="24" viewBox="0 0 24 24" fill="none" xmlns="http://www.w3.org/2000/svg">
<path d="M21.413 8.71701L20.343 4.97C19.961 3.633 19.566 2.25 16.738 2.25H7.26294C4.43494 2.25 4.03896 3.633 3.65796 4.97L2.58801 8.71701C2.36401 9.49901 2.25098 10.308 2.25098 11.121V18C2.25098 20.418 3.58298 21.75 6.00098 21.75H18.001C20.419 21.75 21.751 20.418 21.751 18V11.12C21.75 10.307 21.637 9.49901 21.413 8.71701ZM18.901 5.38199L19.9709 9.129C19.9819 9.169 19.9859 9.21101 19.9969 9.25101H12.75V3.75101H16.7371C18.4351 3.75001 18.552 4.16099 18.901 5.38199ZM5.099 5.38199C5.449 4.16099 5.56594 3.75 7.26294 3.75H11.25V9.25H4.00305C4.01405 9.21 4.01705 9.168 4.02905 9.129L5.099 5.38199ZM20.25 18C20.25 19.577 19.577 20.25 18 20.25H6C4.423 20.25 3.75 19.577 3.75 18V11.12C3.75 10.996 3.769 10.873 3.776 10.75H20.224C20.23 10.874 20.25 10.996 20.25 11.12V18ZM15.03 13.136C15.323 13.429 15.323 13.904 15.03 14.197L11.697 17.53C11.551 17.676 11.359 17.75 11.167 17.75C10.975 17.75 10.783 17.677 10.637 17.53L8.96997 15.863C8.67697 15.57 8.67697 15.095 8.96997 14.802C9.26297 14.509 9.73801 14.509 10.031 14.802L11.168 15.938L13.9709 13.135C14.2629 12.844 14.737 12.844 15.03 13.136Z" fill="currentColor"/>
</svg>

<svg xmlns="http://www.w3.org/2000/svg" width="24" height="24" fill="none"><path fill="currentColor" d="m21.413 8.717-1.07-3.747c-.382-1.337-.777-2.72-3.605-2.72H7.263c-2.828 0-3.224 1.383-3.605 2.72l-1.07 3.747a8.729 8.729 0 0 0-.337 2.404V18c0 2.418 1.332 3.75 3.75 3.75h12c2.418 0 3.75-1.332 3.75-3.75v-6.88a8.76 8.76 0 0 0-.338-2.403Zm-2.512-3.335 1.07 3.747c.01.04.015.082.026.122H12.75v-5.5h3.987c1.698-.001 1.815.41 2.164 1.631Zm-13.802 0c.35-1.221.467-1.632 2.164-1.632h3.987v5.5H4.003c.011-.04.014-.082.026-.121L5.1 5.382ZM20.25 18c0 1.577-.673 2.25-2.25 2.25H6c-1.577 0-2.25-.673-2.25-2.25v-6.88c0-.124.019-.247.026-.37h16.448c.006.124.026.246.026.37V18Zm-5.22-4.864a.75.75 0 0 1 0 1.061l-3.333 3.333a.748.748 0 0 1-1.06 0L8.97 15.863a.75.75 0 1 1 1.061-1.061l1.137 1.136 2.803-2.803a.75.75 0 0 1 1.059.001Z"/></svg>
